icons/jupyter-dark.svg

<svg width="256" height="256" viewBox="0 0 256 256" fill="none" xmlns="http://www.w3.org/2000/svg">
<path d="M196 0H60C26.8629 0 0 26.8629 0 60V196C0 229.137 26.8629 256 60 256H196C229.137 256 256 229.137 256 196V60C256 26.8629 229.137 0 196 0Z" fill="#282828"/>
<path d="M50.9538 133.237C50.9538 139.347 50.4654 141.337 49.2095 142.803C47.8118 144.063 45.9971 144.76 44.1161 144.759L44.6046 148.25C47.5207 148.289 50.3503 147.258 52.5586 145.352C53.7468 143.902 54.631 142.227 55.1585 140.428C55.6859 138.628 55.8458 136.741 55.6286 134.878V111.765H50.9538V133.097V133.237Z" fill="white"/>
<path d="M85.817 130.483C85.817 133.102 85.817 135.441 86.0263 137.466H81.8748L81.5957 133.311C80.7274 134.781 79.4856 135.995 77.9966 136.829C76.5076 137.663 74.8245 138.087 73.1184 138.059C69.0716 138.059 64.2573 135.86 64.2573 126.887V111.979H68.932V125.944C68.932 130.797 70.4321 134.044 74.6534 134.044C75.5218 134.054 76.3834 133.889 77.1876 133.561C77.9918 133.233 78.7223 132.747 79.3365 132.132C79.9506 131.518 80.4359 130.787 80.764 129.982C81.092 129.177 81.2562 128.315 81.2469 127.446V111.804H85.9216V130.344L85.817 130.483Z" fill="white"/>
<path d="M94.678 120.285C94.678 117.038 94.678 114.384 94.4687 111.975H98.6551L98.8644 116.34C99.7971 114.763 101.14 113.469 102.749 112.596C104.359 111.723 106.175 111.303 108.005 111.382C114.214 111.382 118.889 116.584 118.889 124.335C118.889 133.482 113.272 138.021 107.202 138.021C105.649 138.09 104.103 137.757 102.716 137.054C101.329 136.351 100.146 135.301 99.283 134.006V147.971H94.678V120.39V120.285ZM99.283 127.093C99.2957 127.727 99.3657 128.358 99.4923 128.978C99.8882 130.529 100.789 131.903 102.053 132.883C103.317 133.863 104.871 134.393 106.47 134.39C111.389 134.39 114.284 130.375 114.284 124.544C114.284 119.447 111.563 115.083 106.644 115.083C104.697 115.242 102.876 116.107 101.521 117.515C100.166 118.922 99.3699 120.776 99.283 122.729V127.093Z" fill="white"/>
<path d="M127.218 111.952L132.835 127C133.428 128.675 134.056 130.7 134.475 132.202C134.963 130.665 135.486 128.71 136.114 126.895L141.208 111.952H146.127L139.149 130.107C135.661 138.835 133.533 143.339 130.323 146.062C128.707 147.54 126.736 148.574 124.602 149.065L123.451 145.155C124.943 144.664 126.328 143.894 127.532 142.885C129.234 141.497 130.585 139.727 131.474 137.718C131.665 137.37 131.795 136.992 131.858 136.601C131.818 136.179 131.712 135.767 131.544 135.379L122.055 111.882H127.148L127.218 111.952Z" fill="white"/>
<path d="M158.537 104.628V111.959H165.235V115.451H158.537V129.207C158.537 132.349 159.444 134.165 162.025 134.165C162.942 134.18 163.857 134.074 164.747 133.85L164.956 137.342C163.622 137.804 162.215 138.017 160.804 137.97C159.87 138.029 158.934 137.884 158.061 137.547C157.188 137.209 156.398 136.687 155.746 136.015C154.325 134.113 153.677 131.743 153.932 129.381V115.416H149.955V111.925H154.002V105.71L158.537 104.628Z" fill="white"/>
<path d="M173.846 125.526C173.751 126.71 173.915 127.9 174.325 129.015C174.735 130.13 175.382 131.142 176.221 131.982C177.061 132.822 178.072 133.469 179.186 133.88C180.3 134.29 181.489 134.454 182.672 134.359C185.065 134.412 187.443 133.96 189.65 133.032L190.452 136.523C187.744 137.64 184.832 138.175 181.905 138.095C180.198 138.211 178.486 137.958 176.887 137.35C175.288 136.743 173.839 135.797 172.639 134.576C171.439 133.356 170.518 131.89 169.937 130.28C169.357 128.669 169.131 126.952 169.276 125.246C169.276 117.565 173.846 111.49 181.312 111.49C189.684 111.49 191.778 118.822 191.778 123.501C191.822 124.221 191.822 124.944 191.778 125.665H173.742L173.846 125.526ZM187.522 122.034C187.656 121.101 187.589 120.149 187.325 119.244C187.062 118.339 186.607 117.5 185.992 116.786C185.377 116.071 184.616 115.497 183.761 115.101C182.905 114.706 181.975 114.498 181.033 114.493C179.116 114.632 177.32 115.482 175.997 116.877C174.674 118.272 173.919 120.111 173.881 122.034H187.522Z" fill="white"/>
<path d="M198.871 119.891C198.871 116.889 198.871 114.305 198.661 111.931H202.848V116.924H203.057C203.496 115.383 204.404 114.017 205.655 113.016C206.905 112.015 208.436 111.428 210.034 111.337C210.474 111.28 210.92 111.28 211.36 111.337V115.702C210.827 115.64 210.288 115.64 209.755 115.702C208.172 115.763 206.664 116.399 205.515 117.492C204.366 118.584 203.653 120.057 203.511 121.637C203.38 122.351 203.31 123.075 203.301 123.802V137.383H198.696V119.926L198.871 119.891Z" fill="white"/>
<path d="M196.822 41.8259C196.965 44.1714 196.408 46.5065 195.22 48.5337C194.033 50.561 192.269 52.1885 190.154 53.2091C188.039 54.2297 185.668 54.5971 183.344 54.2646C181.019 53.932 178.847 52.9145 177.102 51.3417C175.357 49.7689 174.12 47.712 173.548 45.433C172.976 43.1539 173.094 40.756 173.888 38.5446C174.682 36.3332 176.116 34.4085 178.008 33.0156C179.899 31.6227 182.161 30.8248 184.507 30.7233C186.045 30.6386 187.585 30.859 189.037 31.3719C190.49 31.8848 191.827 32.68 192.971 33.7118C194.116 34.7436 195.045 35.9916 195.706 37.3841C196.367 38.7766 196.746 40.2862 196.822 41.8259Z" fill="#767677"/>
<path d="M127.839 178.558C96.4418 178.558 68.8467 167.281 54.5782 150.628C60.1144 165.61 70.1039 178.535 83.202 187.663C96.3 196.791 111.878 201.685 127.839 201.685C143.8 201.685 159.378 196.791 172.477 187.663C185.575 178.535 195.564 165.61 201.101 150.628C186.867 167.281 159.376 178.558 127.839 178.558Z" fill="#F37726"/>
<path d="M127.839 70.2633C159.237 70.2633 186.832 81.5404 201.101 98.1941C195.564 83.2122 185.575 70.2871 172.477 61.1587C159.378 52.0303 143.8 47.1368 127.839 47.1368C111.878 47.1368 96.3 52.0303 83.202 61.1587C70.1039 70.2871 60.1144 83.2122 54.5782 98.1941C68.8467 81.5055 96.3024 70.2633 127.839 70.2633Z" fill="#F37726"/>
<path d="M84.6167 210.967C84.8009 213.922 84.1021 216.864 82.6093 219.419C81.1165 221.975 78.8974 224.028 76.2347 225.316C73.5719 226.605 70.5861 227.071 67.6577 226.656C64.7292 226.24 61.9906 224.962 59.7909 222.983C57.5912 221.004 56.0299 218.415 55.3059 215.544C54.5819 212.674 54.7281 209.654 55.7257 206.867C56.7234 204.08 58.5274 201.654 60.9078 199.897C63.2883 198.14 66.1375 197.132 69.0924 197.002C71.0281 196.898 72.9652 197.177 74.7931 197.823C76.621 198.469 78.3039 199.469 79.7456 200.766C81.1872 202.063 82.3595 203.631 83.1953 205.382C84.0311 207.132 84.5141 209.03 84.6167 210.967Z" fill="#9E9E9E"/>
<path d="M58.1466 66.4681C56.4548 66.5148 54.7869 66.0599 53.3527 65.1606C51.9186 64.2612 50.7821 62.9575 50.0864 61.4135C49.3906 59.8695 49.1665 58.154 49.4423 56.4829C49.7181 54.8118 50.4815 53.2595 51.6365 52.0215C52.7915 50.7834 54.2864 49.9147 55.9334 49.5247C57.5804 49.1346 59.3058 49.2407 60.8927 49.8294C62.4797 50.4182 63.8572 51.4634 64.8521 52.8336C65.847 54.2038 66.415 55.8379 66.4844 57.5302C66.5505 59.8186 65.712 62.0407 64.151 63.714C62.5899 65.3875 60.4323 66.3771 58.1466 66.4681Z" fill="#616262"/>
</svg>

<svg xmlns="http://www.w3.org/2000/svg" width="256" height="256" fill="none"><path fill="#282828" d="M196 0H60C26.863 0 0 26.863 0 60v136c0 33.137 26.863 60 60 60h136c33.137 0 60-26.863 60-60V60c0-33.137-26.863-60-60-60"/><path fill="#fff" d="M50.954 133.237c0 6.11-.489 8.1-1.745 9.566a7.6 7.6 0 0 1-5.093 1.956l.489 3.491a11.93 11.93 0 0 0 7.954-2.898 13.97 13.97 0 0 0 3.07-10.474v-23.113h-4.675zm34.863-2.754c0 2.619 0 4.958.21 6.983h-4.152l-.28-4.155a9.67 9.67 0 0 1-8.477 4.748c-4.046 0-8.86-2.199-8.86-11.172v-14.908h4.674v13.965c0 4.853 1.5 8.1 5.721 8.1a6.5 6.5 0 0 0 4.683-1.912 6.52 6.52 0 0 0 1.91-4.686v-15.642h4.676v18.54zm8.861-10.198c0-3.247 0-5.901-.21-8.31h4.187l.21 4.365a10.11 10.11 0 0 1 9.14-4.958c6.209 0 10.884 5.202 10.884 12.953 0 9.147-5.617 13.686-11.687 13.686a9.04 9.04 0 0 1-7.919-4.015v13.965h-4.605zm4.605 6.808q.02.953.21 1.885a7.19 7.19 0 0 0 6.977 5.412c4.919 0 7.814-4.015 7.814-9.846 0-5.097-2.721-9.461-7.64-9.461a8.03 8.03 0 0 0-7.361 7.646zm27.935-15.141L132.835 127a87 87 0 0 1 1.64 5.202c.488-1.537 1.011-3.492 1.639-5.307l5.094-14.943h4.919l-6.978 18.155c-3.488 8.728-5.616 13.232-8.826 15.955a12.7 12.7 0 0 1-5.721 3.003l-1.151-3.91a12.4 12.4 0 0 0 4.081-2.27 13.95 13.95 0 0 0 3.942-5.167 3.5 3.5 0 0 0 .384-1.117 4 4 0 0 0-.314-1.222l-9.489-23.497h5.093zm31.319-7.324v7.331h6.698v3.492h-6.698v13.756c0 3.142.907 4.958 3.488 4.958.917.015 1.832-.091 2.722-.315l.209 3.492a11.5 11.5 0 0 1-4.152.628 6.48 6.48 0 0 1-5.058-1.955 9.4 9.4 0 0 1-1.814-6.634v-13.965h-3.977v-3.491h4.047v-6.215zm15.309 20.898a8.21 8.21 0 0 0 5.34 8.354 8.2 8.2 0 0 0 3.486.479 17 17 0 0 0 6.978-1.327l.802 3.491a20.9 20.9 0 0 1-8.547 1.572 11.86 11.86 0 0 1-9.266-3.519 11.87 11.87 0 0 1-3.363-9.33c0-7.681 4.57-13.756 12.036-13.756 8.372 0 10.466 7.332 10.466 12.011q.066 1.081 0 2.164h-18.036zm13.676-3.492a6.6 6.6 0 0 0-1.53-5.248 6.6 6.6 0 0 0-4.959-2.293 7.71 7.71 0 0 0-7.152 7.541zm11.349-2.143c0-3.002 0-5.586-.21-7.96h4.187v4.993h.209a7.71 7.71 0 0 1 6.977-5.587c.44-.057.886-.057 1.326 0v4.365a7 7 0 0 0-1.605 0 6.524 6.524 0 0 0-6.244 5.935 13 13 0 0 0-.21 2.165v13.581h-4.605v-17.457z"/><path fill="#767677" d="M196.822 41.826a11.84 11.84 0 0 1-6.668 11.383 11.82 11.82 0 0 1-13.052-1.867 11.85 11.85 0 0 1-3.214-12.797 11.83 11.83 0 0 1 10.619-7.822 11.68 11.68 0 0 1 8.464 2.989 11.7 11.7 0 0 1 3.851 8.114"/><path fill="#F37726" d="M127.839 178.558c-31.397 0-58.992-11.277-73.26-27.93a78.16 78.16 0 0 0 28.623 37.035 78.07 78.07 0 0 0 44.637 14.022 78.1 78.1 0 0 0 44.638-14.022 78.17 78.17 0 0 0 28.624-37.035c-14.234 16.653-41.725 27.93-73.262 27.93m0-108.295c31.398 0 58.993 11.277 73.262 27.931a78.17 78.17 0 0 0-28.624-37.035 78.07 78.07 0 0 0-89.275 0 78.16 78.16 0 0 0-28.624 37.035c14.269-16.689 41.724-27.93 73.261-27.93"/><path fill="#9E9E9E" d="M84.617 210.967a14.91 14.91 0 0 1-8.382 14.349 14.89 14.89 0 0 1-20.93-9.772 14.92 14.92 0 0 1 5.603-15.647 14.9 14.9 0 0 1 8.184-2.895 14.74 14.74 0 0 1 10.654 3.764 14.76 14.76 0 0 1 4.87 10.201"/><path fill="#616262" d="M58.147 66.468a8.58 8.58 0 0 1-8.06-5.055 8.595 8.595 0 0 1 1.55-9.391 8.58 8.58 0 0 1 14.847 5.508 8.7 8.7 0 0 1-2.333 6.184 8.68 8.68 0 0 1-6.004 2.754"/></svg>
